X: 42986
T: Willie Roy's Loomhouse
R: reel
M: 4/4
K: Amajor
ef|eAc2 eAc2|Aaac e2 ef|eAc2 eAc2|B=ggBd2df|
eAc2 eAc2|Aaace2eg|a2Aa fecA|B=ggBd2:|
fg|a2ea fecA|caac e2eg|a2ea fecA|B=ggB d2f^g|
a2ea fecA|caac e2eg|aAAa fecA|B=ggBd2:|

